X:1
T:Wooden Heart
M:C|
L:1/8
Q:80
C:
S:March 2/4
K:HP
| AB | \
c2{GdG}ce | \
d2{gdedc}df | \
e3/2f/2ed |
{gcd}c4 | | \
e3/2f/2ed | \
{gcd}c2{GdG}ce |
d2{gdedc}dc | \
B2e2 | \
{gcd}c4 | \
-c2| |
AB | \
c2{GdG}ce | \
d2{gdedc}df | \
e3/2f/2ed |
{gcd}c4 | | \
e3/2f/2ed | \
{gcd}c2{GdG}ce |
d2{gdedc}dc | \
B2{gcd}c2 | \
A4 |
-{GAG}A2|]  | \
{g}Ac | \
B2{GdG}Bc |
{Gdc}d2cB | \
c2{GdG}c3/2d/2 | \
e2{A}e2 |
f2{GdG}f2 | | \
a2gf | \
e2{A}e3/2f/2 | \
e2AB |
c2{GdG}ce | \
d2{gdedc}df | \
e3/2f/2ed |
{gcd}c4 | | \
e3/2f/2ed | \
{gcd}c2{GdG}ce |
d2{gdedc}dc | \
B2c2 | \
A4{GAG}A2|]
